picto/car-park-framed.svg

<svg class="color-immutable" width="30" height="30" viewBox="0 0 30 30" fill="none" xmlns="http://www.w3.org/2000/svg"><path d="M30 0H0V30H30V0Z" fill="#2D327D"/><path d="M25.5 3C26.325 3 27 3.675 27 4.5V25.5C27 26.325 26.325 27 25.5 27H4.5C3.675 27 3 26.325 3 25.5V4.5C3 3.675 3.675 3 4.5 3H25.5ZM25.5 2.625H4.5C3.46613 2.625 2.625 3.46613 2.625 4.5V25.5C2.625 26.5339 3.46613 27.375 4.5 27.375H25.5C26.5339 27.375 27.375 26.5339 27.375 25.5V4.5C27.375 3.46613 26.5339 2.625 25.5 2.625Z" fill="white"/><path d="M16.0541 14.8426V14.8429V14.8432L16.0546 14.8423L16.0541 14.8426Z" fill="white"/><path d="M6 10.5H11.448C12.3652 10.5 13.087 10.557 13.6134 10.6708C14.1397 10.7849 14.6152 10.9864 15.04 11.2756C16.2157 12.0637 16.8038 13.2517 16.8038 14.84C16.8038 16.2497 16.3174 17.3578 15.3448 18.1642C14.9323 18.509 14.4613 18.7567 13.932 18.9075C13.4024 19.0585 12.7501 19.1338 11.9744 19.1338H8.9457V24H6V10.5ZM8.94562 12.9932V16.816H11.5773C12.359 16.816 12.9223 16.6775 13.2671 16.4005C13.6919 16.0558 13.9042 15.5479 13.9042 14.8769C13.9042 14.1998 13.658 13.695 13.1656 13.3626C12.8085 13.1165 12.2267 12.9932 11.4203 12.9932H8.94562V12.9932Z" fill="white"/></svg>

<svg class="color-immutable" width="30" height="30" viewBox="0 0 30 30" fill="none" xmlns="http://www.w3.org/2000/svg"><g clip-path="url(#a)"><path d="M30 0H0v30h30V0Z" fill="#2D327D"/><path d="M25.5 3c.825 0 1.5.675 1.5 1.5v21c0 .825-.675 1.5-1.5 1.5h-21c-.825 0-1.5-.675-1.5-1.5v-21C3 3.675 3.675 3 4.5 3h21Zm0-.375h-21A1.877 1.877 0 0 0 2.625 4.5v21c0 1.034.841 1.875 1.875 1.875h21a1.877 1.877 0 0 0 1.875-1.875v-21A1.877 1.877 0 0 0 25.5 2.625ZM16.054 14.843Z" fill="#fff"/><path d="M6 10.5h5.448c.917 0 1.639.057 2.165.17a4.022 4.022 0 0 1 1.427.606c1.176.788 1.764 1.976 1.764 3.564 0 1.41-.487 2.518-1.46 3.324a3.8 3.8 0 0 1-1.412.743c-.53.151-1.182.227-1.958.227H8.946V24H6V10.5Zm2.946 2.493v3.823h2.631c.782 0 1.345-.139 1.69-.415.425-.345.637-.853.637-1.524 0-.677-.246-1.182-.738-1.514-.357-.246-.94-.37-1.746-.37H8.946Z" fill="#fff"/></g><defs><clipPath id="a"><path fill="#fff" d="M0 0h30v30H0z"/></clipPath></defs></svg>
